images/youtube.svg

<svg width="32" height="32" viewBox="0 0 32 32" fill="#000" xmlns="http://www.w3.org/2000/svg">
	<circle cx="16" cy="16" r="16" fill="#E9E9E9"/>
	<path d="M16.0109 11.029C16.6316 11.029 17.2496 11.0181 17.8703 11.0318C18.6578 11.0482 19.4453 11.0783 20.2301 11.1138C20.5555 11.1302 20.8863 11.1384 21.209 11.2013C21.9773 11.349 22.434 11.822 22.6445 12.5685C22.7566 12.965 22.7977 13.3724 22.8332 13.7798C22.9289 14.8763 22.9098 15.9728 22.8824 17.0693C22.866 17.7173 22.8387 18.3708 22.6746 19.0052C22.6062 19.265 22.5269 19.5247 22.3766 19.7517C22.1031 20.1646 21.7094 20.3997 21.2281 20.4872C20.8152 20.5638 20.3969 20.572 19.9785 20.5912C19.2047 20.6267 18.4309 20.6431 17.657 20.6622C16.741 20.6869 15.825 20.6814 14.9117 20.6732C14.1707 20.665 13.4269 20.6486 12.6859 20.6185C12.0598 20.5939 11.4309 20.5829 10.8129 20.4626C10.4711 20.397 10.1676 20.2548 9.90507 20.0197C9.65898 19.7954 9.5332 19.5056 9.44023 19.1994C9.24062 18.5431 9.22695 17.865 9.18593 17.1869C9.13945 16.3939 9.15312 15.6009 9.17226 14.8107C9.18867 14.1435 9.21875 13.4736 9.3582 12.8173C9.44023 12.429 9.55234 12.0435 9.83398 11.7455C10.1812 11.379 10.6242 11.204 11.1246 11.1685C11.7234 11.1275 12.325 11.1001 12.9238 11.0755C13.9519 11.0318 14.9828 11.0181 16.0109 11.029ZM18.2832 15.7103C18.2723 15.6775 18.2422 15.672 18.2203 15.6611C17.5777 15.322 16.9324 14.9829 16.2871 14.6439C15.7758 14.3759 15.2644 14.1052 14.7531 13.8345C14.6109 13.7607 14.6082 13.7634 14.6082 13.9275C14.6082 15.106 14.6082 16.2845 14.6082 17.4658C14.6082 17.4876 14.6082 17.5122 14.6082 17.5341C14.6055 17.6052 14.6328 17.6271 14.6984 17.5915C14.7777 17.5478 14.857 17.504 14.9391 17.4603C16.0164 16.9025 17.0965 16.3419 18.1738 15.7841C18.2121 15.7622 18.2613 15.754 18.2832 15.7103Z"/>
</svg>

<svg width="32" height="32" xmlns="http://www.w3.org/2000/svg"><circle cx="16" cy="16" r="16" fill="#E9E9E9"/><path d="M16.01 11.029c.622 0 1.24-.01 1.86.003.788.016 1.575.046 2.36.082.325.016.656.024.979.087.768.148 1.225.621 1.436 1.367.112.397.153.804.188 1.212.096 1.096.077 2.193.05 3.29-.017.647-.044 1.3-.208 1.935-.069.26-.148.52-.298.747-.274.413-.668.648-1.149.735-.413.077-.831.085-1.25.104-.773.036-1.547.052-2.321.071-.916.025-1.832.02-2.745.011a75.479 75.479 0 01-2.226-.054c-.626-.025-1.255-.036-1.873-.156a1.853 1.853 0 01-.908-.443c-.246-.225-.372-.514-.465-.82-.2-.657-.213-1.335-.254-2.013-.047-.793-.033-1.586-.014-2.376.017-.668.047-1.337.186-1.994.082-.388.194-.774.476-1.072.347-.366.79-.541 1.29-.576a63.99 63.99 0 011.8-.094 58.212 58.212 0 013.087-.046zm2.273 4.681c-.01-.033-.04-.038-.063-.049-.642-.339-1.288-.678-1.933-1.017-.511-.268-1.023-.539-1.534-.81-.142-.073-.145-.07-.145.094v3.606c-.003.071.025.093.09.058l.241-.132 3.235-1.676c.038-.022.087-.03.11-.074z"/></svg>
